22x22/actions/map-gnomonic.svg

<svg xmlns="http://www.w3.org/2000/svg" viewBox="0 0 22 22">
  <defs id="defs3051">
    <style type="text/css" id="current-color-scheme">
      .ColorScheme-Text {
        color:#5d656b;
      }
      </style>
  </defs>
 <path 
    style="fill:currentColor;fill-opacity:1;stroke:none" 
    d="M 3 3 L 3 6 L 3 16 L 3 19 L 19 19 L 19 16 L 19 6 L 19 3 L 3 3 z M 4 4 L 8 4 L 8 8.7070312 A 7 3.0000024 0 0 1 4 6 L 4 4 z M 9 4 L 13 4 L 13 8.8730469 A 7 3.0000024 0 0 1 11 9 A 7 3.0000024 0 0 1 9 8.8730469 L 9 4 z M 14 4 L 18 4 L 18 6 A 7 3.0000024 0 0 1 14 8.7070312 L 14 4 z M 4 7.9277344 A 7.9999909 3.9999955 0 0 0 8 9.7050781 L 8 12.294922 A 7.9999909 3.9999955 0 0 0 4 14.072266 L 4 7.9277344 z M 18 7.9355469 L 18 14.064453 A 7.9999909 3.9999955 0 0 0 14 12.294922 L 14 9.7050781 A 7.9999909 3.9999955 0 0 0 18 7.9355469 z M 9 9.8671875 A 7.9999909 3.9999955 0 0 0 11 10 A 7.9999909 3.9999955 0 0 0 13 9.8691406 L 13 12.130859 A 7.9999909 3.9999955 0 0 0 11 12 A 7.9999909 3.9999955 0 0 0 9 12.132812 L 9 9.8671875 z M 11 13 A 7 3.0000024 0 0 1 13 13.126953 L 13 18 L 9 18 L 9 13.126953 A 7 3.0000024 0 0 1 11 13 z M 8 13.292969 L 8 18 L 4 18 L 4 16 A 7 3.0000024 0 0 1 8 13.292969 z M 14 13.292969 A 7 3.0000024 0 0 1 18 16 L 18 18 L 14 18 L 14 13.292969 z "
    class="ColorScheme-Text"
    />  
</svg>

<svg xmlns="http://www.w3.org/2000/svg" viewBox="0 0 22 22"><path style="fill:currentColor;fill-opacity:1;stroke:none;color:#5d656b" d="M3 3v16h16V3H3zm1 1h4v4.707A7 3 0 0 1 4 6V4zm5 0h4v4.873A7 3 0 0 1 11 9a7 3 0 0 1-2-.127V4zm5 0h4v2a7 3 0 0 1-4 2.707V4zM4 7.928a8 4 0 0 0 4 1.777v2.59a8 4 0 0 0-4 1.777V7.928zm14 .008v6.128a8 4 0 0 0-4-1.77V9.706a8 4 0 0 0 4-1.77zM9 9.867A8 4 0 0 0 11 10a8 4 0 0 0 2-.13v2.26a8 4 0 0 0-2-.13 8 4 0 0 0-2 .133V9.867zM11 13a7 3 0 0 1 2 .127V18H9v-4.873A7 3 0 0 1 11 13zm-3 .293V18H4v-2a7 3 0 0 1 4-2.707zm6 0A7 3 0 0 1 18 16v2h-4v-4.707z"/></svg>
